include/LD/assets/icons/utility/company.svg

<?xml version="1.0"?><svg xmlns="http://www.w3.org/2000/svg" width="52" height="52" viewBox="0 0 52 52"><path fill="#fff" d="m21 4h-14c-1.7 0-3 1.3-3 3v40c0 0.5 0.5 1 1 1h4c0.6 0 1-0.4 1-1v-6c0-0.6 0.4-1 1-1h6c0.6 0 1 0.4 1 1v6c0 0.6 0.4 1 1 1h3c1.1 0 2-0.9 2-2v-39c0-1.7-1.3-3-3-3z m-9 31.5c0 0.3-0.2 0.5-0.5 0.5h-3c-0.3 0-0.5-0.2-0.5-0.5v-5c0-0.3 0.2-0.5 0.5-0.5h3c0.3 0 0.5 0.2 0.5 0.5v5z m0-10c0 0.3-0.2 0.5-0.5 0.5h-3c-0.3 0-0.5-0.2-0.5-0.5v-5c0-0.3 0.2-0.5 0.5-0.5h3c0.3 0 0.5 0.2 0.5 0.5v5z m0-10c0 0.3-0.2 0.5-0.5 0.5h-3c-0.3 0-0.5-0.2-0.5-0.5v-5c0-0.3 0.2-0.5 0.5-0.5h3c0.3 0 0.5 0.2 0.5 0.5v5z m8 20c0 0.3-0.2 0.5-0.5 0.5h-3c-0.3 0-0.5-0.2-0.5-0.5v-5c0-0.3 0.2-0.5 0.5-0.5h3c0.3 0 0.5 0.2 0.5 0.5v5z m0-10c0 0.3-0.2 0.5-0.5 0.5h-3c-0.3 0-0.5-0.2-0.5-0.5v-5c0-0.3 0.2-0.5 0.5-0.5h3c0.3 0 0.5 0.2 0.5 0.5v5z m0-10c0 0.3-0.2 0.5-0.5 0.5h-3c-0.3 0-0.5-0.2-0.5-0.5v-5c0-0.3 0.2-0.5 0.5-0.5h3c0.3 0 0.5 0.2 0.5 0.5v5z m25-1.5h-14c-1.7 0-3 1.3-3 3v30c0 0.5 0.5 1 1 1h4c0.6 0 1-0.4 1-1v-6c0-0.6 0.4-1 1-1h6c0.6 0 1 0.4 1 1v6c0 0.6 0.4 1 1 1h3c1.1 0 2-0.9 2-2v-29c0-1.7-1.3-3-3-3z m-9 21.5c0 0.3-0.2 0.5-0.5 0.5h-3c-0.3 0-0.5-0.2-0.5-0.5v-5c0-0.3 0.2-0.5 0.5-0.5h3c0.3 0 0.5 0.2 0.5 0.5v5z m0-10c0 0.3-0.2 0.5-0.5 0.5h-3c-0.3 0-0.5-0.2-0.5-0.5v-5c0-0.3 0.2-0.5 0.5-0.5h3c0.3 0 0.5 0.2 0.5 0.5v5z m8 10c0 0.3-0.2 0.5-0.5 0.5h-3c-0.3 0-0.5-0.2-0.5-0.5v-5c0-0.3 0.2-0.5 0.5-0.5h3c0.3 0 0.5 0.2 0.5 0.5v5z m0-10c0 0.3-0.2 0.5-0.5 0.5h-3c-0.3 0-0.5-0.2-0.5-0.5v-5c0-0.3 0.2-0.5 0.5-0.5h3c0.3 0 0.5 0.2 0.5 0.5v5z"></path></svg>

<svg xmlns="http://www.w3.org/2000/svg" x="0px" y="0px"
	 width="52px" height="52px" viewBox="0 0 52 52" enable-background="new 0 0 52 52" xml:space="preserve">
<path fill="#FFFFFF" d="M21,4H7C5.3,4,4,5.3,4,7v40c0,0.5,0.5,1,1,1h4c0.6,0,1-0.4,1-1v-6c0-0.6,0.4-1,1-1h6c0.6,0,1,0.4,1,1v6
	c0,0.6,0.4,1,1,1h3c1.1,0,2-0.9,2-2V7C24,5.3,22.7,4,21,4z M12,35.5c0,0.3-0.2,0.5-0.5,0.5h-3C8.2,36,8,35.8,8,35.5v-5
	C8,30.2,8.2,30,8.5,30h3c0.3,0,0.5,0.2,0.5,0.5V35.5z M12,25.5c0,0.3-0.2,0.5-0.5,0.5h-3C8.2,26,8,25.8,8,25.5v-5
	C8,20.2,8.2,20,8.5,20h3c0.3,0,0.5,0.2,0.5,0.5V25.5z M12,15.5c0,0.3-0.2,0.5-0.5,0.5h-3C8.2,16,8,15.8,8,15.5v-5
	C8,10.2,8.2,10,8.5,10h3c0.3,0,0.5,0.2,0.5,0.5V15.5z M20,35.5c0,0.3-0.2,0.5-0.5,0.5h-3c-0.3,0-0.5-0.2-0.5-0.5v-5
	c0-0.3,0.2-0.5,0.5-0.5h3c0.3,0,0.5,0.2,0.5,0.5V35.5z M20,25.5c0,0.3-0.2,0.5-0.5,0.5h-3c-0.3,0-0.5-0.2-0.5-0.5v-5
	c0-0.3,0.2-0.5,0.5-0.5h3c0.3,0,0.5,0.2,0.5,0.5V25.5z M20,15.5c0,0.3-0.2,0.5-0.5,0.5h-3c-0.3,0-0.5-0.2-0.5-0.5v-5
	c0-0.3,0.2-0.5,0.5-0.5h3c0.3,0,0.5,0.2,0.5,0.5V15.5z"/>
<path fill="#FFFFFF" d="M45,14H31c-1.7,0-3,1.3-3,3v30c0,0.5,0.5,1,1,1h4c0.6,0,1-0.4,1-1v-6c0-0.6,0.4-1,1-1h6c0.6,0,1,0.4,1,1v6
	c0,0.6,0.4,1,1,1h3c1.1,0,2-0.9,2-2V17C48,15.3,46.7,14,45,14z M36,35.5c0,0.3-0.2,0.5-0.5,0.5h-3c-0.3,0-0.5-0.2-0.5-0.5v-5
	c0-0.3,0.2-0.5,0.5-0.5h3c0.3,0,0.5,0.2,0.5,0.5V35.5z M36,25.5c0,0.3-0.2,0.5-0.5,0.5h-3c-0.3,0-0.5-0.2-0.5-0.5v-5
	c0-0.3,0.2-0.5,0.5-0.5h3c0.3,0,0.5,0.2,0.5,0.5V25.5z M44,35.5c0,0.3-0.2,0.5-0.5,0.5h-3c-0.3,0-0.5-0.2-0.5-0.5v-5
	c0-0.3,0.2-0.5,0.5-0.5h3c0.3,0,0.5,0.2,0.5,0.5V35.5z M44,25.5c0,0.3-0.2,0.5-0.5,0.5h-3c-0.3,0-0.5-0.2-0.5-0.5v-5
	c0-0.3,0.2-0.5,0.5-0.5h3c0.3,0,0.5,0.2,0.5,0.5V25.5z"/>
</svg>
